X: 1
T: Cavers of Kirkcudbright
C: Mike Vass (2007)
O: England
R: jig
%date: 2007
Z: 2020 John Chambers <jc:trillian.mit.edu>
S: https://oxfordslowsession.com/about/tune-of-the-month/cavers-of-kirkcudbright/
F: https://oxfordslowsession.files.wordpress.com/2017/06/caversofkirkcudbrightcolinschords.jpg
M: 6/8
L: 1/8
K: F
|:\
"F"Fcc cAc- | cdc AGF | "F"Fcc "F/G"cAc- | "Bb"cfe "C"dcA | "F"Fcc cAc- | "C/A"cdc AGF |
"Bb"FBA GFD | "Gm"DBA GFD :: "Bb"dBB "C"ecf- | "Dm"fcc dcA | "Bb"dAB "C"ece |
"Dm"fga "Am"gfe | "Bb"dBB "C"ecf- | "Dm"fcc dcA- | "Bb"ABA GFD | "Gm"DBA GFD :|["End" "F"F6 |]
